img/radio-off.svg

<svg width="22" height="22" fill="none" xmlns="http://www.w3.org/2000/svg"><path d="M11 3.52c1.4794 0 2.9256.43869 4.1557 1.26061 1.23.82191 2.1888 1.99012 2.7549 3.35692.5662 1.36679.7143 2.87077.4257 4.32177s-1.001 2.7838-2.0471 3.8299-2.3789 1.7585-3.8299 2.0471c-1.451.2886-2.95498.1405-4.32177-.4257-1.36679-.5661-2.53501-1.5249-3.35692-2.7549C3.9587 13.9256 3.52 12.4794 3.52 11c.00233-1.98311.79115-3.88432 2.19342-5.28659C7.11568 4.31115 9.0169 3.52233 11 3.52zM11 0C8.82441 0 6.69767.645139 4.88873 1.85383 3.07979 3.06253 1.66989 4.78049.83733 6.79048.00476611 8.80047-.213071 11.0122.211367 13.146c.424437 2.1338 1.472083 4.0938 3.010463 5.6322 1.53838 1.5383 3.49839 2.586 5.63218 3.0104 2.13379.4245 4.34549.2066 6.35549-.6259 2.01-.8326 3.728-2.2425 4.9367-4.0514C21.3549 15.3023 22 13.1756 22 11c0-2.91738-1.1589-5.71528-3.2218-7.77818C16.7153 1.15893 13.9174 0 11 0z" fill="#fff"/></svg>

<svg width="22" height="22" viewBox="0 0 22 22" fill="none" xmlns="http://www.w3.org/2000/svg">
<path d="M11 3.52C12.4794 3.52 13.9256 3.95869 15.1557 4.78061C16.3857 5.60252 17.3445 6.77073 17.9106 8.13753C18.4768 9.50432 18.6249 11.0083 18.3363 12.4593C18.0477 13.9103 17.3353 15.2431 16.2892 16.2892C15.2431 17.3353 13.9103 18.0477 12.4593 18.3363C11.0083 18.6249 9.50432 18.4768 8.13753 17.9106C6.77074 17.3445 5.60252 16.3857 4.78061 15.1557C3.9587 13.9256 3.52 12.4794 3.52 11C3.52233 9.01689 4.31115 7.11568 5.71342 5.71341C7.11568 4.31115 9.0169 3.52233 11 3.52ZM11 0C8.82441 0 6.69767 0.645139 4.88873 1.85383C3.07979 3.06253 1.66989 4.78049 0.83733 6.79048C0.00476611 8.80047 -0.213071 11.0122 0.211367 13.146C0.635804 15.2798 1.68345 17.2398 3.22183 18.7782C4.76021 20.3165 6.72022 21.3642 8.85401 21.7886C10.9878 22.2131 13.1995 21.9952 15.2095 21.1627C17.2195 20.3301 18.9375 18.9202 20.1462 17.1113C21.3549 15.3023 22 13.1756 22 11C22 8.08262 20.8411 5.28472 18.7782 3.22182C16.7153 1.15893 13.9174 0 11 0V0Z" fill="white"/>
</svg>
